X: 5268
T: Brolum, The
R: reel
M: 4/4
K: Amajor
uf|e2 (ce) fefa|A2 (cB) ceef|e2 (ce) fefa|B2 (ce) fBBf|
e2 (ce) fefa|A2 (cB) ceef|ecae f2 (ec)|B2 (cB) AA A:|
e|A2 (cA) eAcA|A2 (cB) ceef|A2 (cA) eAcA|B2 (ce) fBBe|
A2 (cA) eAcA|A2 (cB) ceef|ecae f2 (ec)|B2 (cB) AA A:|
e|a2 (af) e2 (ce)|A2 (cB) ceef|a2 (af) e2 (ce)|B2 (ce) fBBe|
a2 (af) e2 (ce)|A2 (cB) ceef|ecae f2 (ec)|B2 (cB) AA A:|
e|AAAc AAAc|A2 (cB) ceef|AAAc AAAc|B2 (ce) fBBe|
AAAc AAAc|A2 (cB) ceef|ecae f2 (ec)|B2 (cB) AA A:|

